X:94405
T:Joyful Joyful We Adore Thee
T: Ode to Joy
H:
B:
C:Ludwig van Beethoven
O:Kevin Fraser
Z:Kevin Fraser
Q:1/4=60
% K:HP
K:Dmaj
M:none
M:4/4
L:1/8
R:March
U:V = !accent!
V:M name="Melody" sname="Melody" gstem=up stem=down " " 
V:H name="Harmony" sname="Harmony" gstem=up stem=down " " 
V:C name="Bass" sname="Bass" gstem=up stem=down " 
V:S clef=perc name="Snare" sname="Snare" middle=G gstem=up stem=down dyn=up stafflines=1 " " " 
V:B clef=none name="Bass" sname="Bass" gstem=up stem=down dyn=up " " 
V:T clef=none name="Tenor" sname="Tenor" gstem=up stem=down dyn=up " " 
V:BB clef=bass octave=-1 transpose=-1 name="Brass Bass" sname="ABCD-C" gstem=up stem=down " " 
V:BC transpose=-1 name="Brass Chord" sname="ABCD-D" gstem=up stem=down " " 
V:BD transpose=-1 name="Brass Chord 2" sname="ABCD-B" gstem=up stem=down " " 
V:P octave=-1 name="Piano" gstem=up stem=down " 
I:MIDI=program 110
%%MIDI gracedivider 4
% %MIDI gchord 
%%MIDI beatstring 
% %alignbars 8
% %landscape
I:linebreak $
%%score {M H}
% %MIDI program 109 #bagpipes
%%MIDI vol 100
% %MIDI droneon
% %landscape
% %barsperstaff 4
% %score {M H C}
%%score {M}
[V:M] {g}c{d}c {g}de  {g}ed {g}cB | {g}A{G}A {g}Bc  {g}c-c/>B/ {G}B2 | $
w: ho ho ha e he a ho o | hen den ho o ho-o o do
[V:H] {g}A{g}A {g}Bc  {g}cB {g}AG | {g}A{g}A {g}GA  {g}A-A/>G/ {g}G2 | $
[V:M] {g}c{d}c {g}de  {g}ed {g}cB | {g}A{G}A {g}Bc  {g}B-B/>A/ {GAG}A2 |]  $
w:ho ho ha e he a ho o | hen den ho o ho-o en rarin
[V:H] {g}A{g}A {g}Bc  {g}cB {g}AG | {g}A{g}A {g}GA  {g}G-G/>a/ {g}a2 |] $
[V:M] {g}B{G}B {g}cA  {g}Bc/d/ {g}cA | {g}Bc/d/ {g}cB  {g}AB {g}e{A}e | $
w: ho ho ho en ho o-a ho en | ho o-a ho o hen o e de
[V:H] {g}e{g}e {a}fg  {g}eA/B/ Ac | dc/B/ cc cB G2 | $
[V:M] {g}c{d}c {g}de  {g}ed {g}cB | {g}A{G}A {g}Bc  {g}B-B/>A/ {GAG}A2 |] $
w:ho ho ha e he a ho o | hen den ho o ho-o en rarin
[V:H] {g}A{g}A {g}Bc  {g}cB {g}AG | {g}A{g}A {g}GA  {g}G-G/>a/ {g}a2 |] $
W: "The Hymn of Joy" (often called "Joyful, Joyful We Adore Thee" after the first line) 
W: is a poem written by Henry van Dyke in 1907 with the intention of musically 
W: setting it to the famous "Ode to Joy" melody of the final movement of 
W: Ludwig van Beethoven's final symphony, Symphony No. 9. (Wikipedia)

